src/md-grid.svg

<svg xmlns="http://www.w3.org/2000/svg" viewBox="0 0 512 512" xml:space="preserve"><path d="M409.6 64H102.4C81.3 64 64 81.3 64 102.4v307.2c0 21.1 17.3 38.4 38.4 38.4h307.2c21.1 0 38.4-17.3 38.4-38.4V102.4c0-21.1-17.3-38.4-38.4-38.4zM179.2 409.6h-76.8v-76.8h76.8v76.8zm0-115.2h-76.8v-76.8h76.8v76.8zm0-115.2h-76.8v-76.8h76.8v76.8zm115.2 230.4h-76.8v-76.8h76.8v76.8zm0-115.2h-76.8v-76.8h76.8v76.8zm0-115.2h-76.8v-76.8h76.8v76.8zm115.2 230.4h-76.8v-76.8h76.8v76.8zm0-115.2h-76.8v-76.8h76.8v76.8zm0-115.2h-76.8v-76.8h76.8v76.8z"/></svg>

<?xml version="1.0" encoding="utf-8"?>
<!-- Generator: Adobe Illustrator 18.1.1, SVG Export Plug-In . SVG Version: 6.00 Build 0)  -->
<svg version="1.1" id="Layer_1" xmlns="http://www.w3.org/2000/svg" xmlns:xlink="http://www.w3.org/1999/xlink" x="0px" y="0px"
	 viewBox="0 0 512 512" enable-background="new 0 0 512 512" xml:space="preserve">
<path d="M409.6,64H102.4C81.3,64,64,81.3,64,102.4v307.2c0,21.1,17.3,38.4,38.4,38.4h307.2c21.1,0,38.4-17.3,38.4-38.4V102.4
	C448,81.3,430.7,64,409.6,64z M179.2,409.6h-76.8v-76.8h76.8V409.6z M179.2,294.4h-76.8v-76.8h76.8V294.4z M179.2,179.2h-76.8v-76.8
	h76.8V179.2z M294.4,409.6h-76.8v-76.8h76.8V409.6z M294.4,294.4h-76.8v-76.8h76.8V294.4z M294.4,179.2h-76.8v-76.8h76.8V179.2z
	 M409.6,409.6h-76.8v-76.8h76.8V409.6z M409.6,294.4h-76.8v-76.8h76.8V294.4z M409.6,179.2h-76.8v-76.8h76.8V179.2z"/>
</svg>
